svg/furkot/freepik/outdoors.svg

<svg viewBox="0 0 512 512" xmlns="http://www.w3.org/2000/svg"><path d="m483.485 312.893c-5.555-10.423-14.524-10.395-20.024.064l-6.808 12.931c-5.509 10.451-19.538 18.925-31.344 18.925h-16.032c-11.816 0-28.371 6.553-36.982 14.633l-30.959 29.038-1.18-100.858c.786-17.653-10.141-23.575-10.141-23.575l-54.112-24.855 32.222-64.737 36.871 21.927s14.807 9.297 25.578-8.923l35.434-60.381c1.555-3.367 2.004-7.239 1.007-11.11-2.279-8.858-11.302-14.221-20.188-11.942-3.907.997-7.138 3.34-9.335 6.424l-29.449 49.728-60.078-35.507c-4.529-2.599-10.067-3.532-15.558-2.114l-74.977 19.255c-4.814 1.236-8.575 4.558-10.543 8.749l-36.459 72.891c-2.48 3.688-3.469 8.355-2.27 13.022 2.187 8.557 10.964 13.745 19.557 11.541 4.823-1.236 8.566-4.54 10.524-8.768l33.796-67.811 27.692-6.983-72.927 143.476-63.144 16.015c-1.684.376-3.331.979-4.941 1.757-10.141 5.179-14.048 17.397-8.869 27.564 4.529 8.868 14.596 13.05 23.83 10.507l74.711-19.32c17.801-3.917 22.311-13.827 22.311-13.827l29.266-56.263 59.603 34.144.567 82.51c.01 1.033.248 2.068.403 3.101l-11.101-4.008c-11.109-4.008-29.256-4.41-40.54-.915l-25.011 7.779c-11.283 3.506-29.468 3.195-40.622-.686l-18.395-6.406c-11.156-3.88-27.592-.942-36.724 6.544l-22.969 18.869c-9.133 7.486-25.523 10.259-36.605 6.204l-29.486-10.816c-11.082-4.073-24.507 1.107-29.989 11.577l-6.9 13.196c-5.481 10.46-.338 18.943 11.467 18.943h465.101c11.806 0 23.264-9.38 25.579-20.965l7.66-38.262c2.305-11.577-.311-29.412-5.876-39.827z"/><path d="m312.363 121.181c17.041-4.366 27.335-21.744 22.952-38.783-4.384-17.077-21.762-27.327-38.811-22.952-17.031 4.384-27.309 21.734-22.934 38.792 4.383 17.059 21.762 27.326 38.793 22.943z"/></svg>

<svg xmlns="http://www.w3.org/2000/svg" viewBox="0 0 512 512"><path d="M483.485 312.893C477.93 302.47 468.961 302.498 463.461 312.957L456.653 325.888C451.144 336.339 437.115 344.813 425.309 344.813H409.277C397.461 344.813 380.906 351.366 372.295 359.446L341.336 388.484 340.156 287.626C340.942 269.973 330.015 264.051 330.015 264.051L275.903 239.196 308.125 174.459 344.996 196.386C344.996 196.386 359.803 205.683 370.574 187.463L406.008 127.082C407.563 123.715 408.012 119.843 407.015 115.972 404.736 107.114 395.713 101.751 386.827 104.03 382.92 105.027 379.689 107.37 377.492 110.454L348.043 160.182 287.965 124.675C283.436 122.076 277.898 121.143 272.407 122.561L197.43 141.816C192.616 143.052 188.855 146.374 186.887 150.565L150.428 223.456C147.948 227.144 146.959 231.811 148.158 236.478 150.345 245.035 159.122 250.223 167.715 248.019 172.538 246.783 176.281 243.479 178.239 239.251L212.035 171.44 239.727 164.457 166.8 307.933 103.656 323.948C101.972 324.324 100.325 324.927 98.715 325.705 88.574 330.884 84.667 343.102 89.846 353.269 94.375 362.137 104.442 366.319 113.676 363.776L188.387 344.456C206.188 340.539 210.698 330.629 210.698 330.629L239.964 274.366 299.567 308.51 300.134 391.02C300.144 392.053 300.382 393.088 300.537 394.121L289.436 390.113C278.327 386.105 260.18 385.703 248.896 389.198L223.885 396.977C212.602 400.483 194.417 400.172 183.263 396.291L164.868 389.885C153.712 386.005 137.276 388.943 128.144 396.429L105.175 415.298C96.042 422.784 79.652 425.557 68.57 421.502L39.084 410.686C28.002 406.613 14.577 411.793 9.095 422.263L2.195 435.459C-3.286 445.919 1.857 454.402 13.662 454.402H478.763C490.569 454.402 502.027 445.022 504.342 433.437L512.002 395.175C514.307 383.598 511.691 365.763 506.126 355.348L483.485 312.893Z"/><path d="M312.363 121.181C329.404 116.815 339.698 99.437 335.315 82.398 330.931 65.321 313.553 55.071 296.504 59.446 279.473 63.83 269.195 81.18 273.57 98.238 277.953 115.297 295.332 125.564 312.363 121.181Z"/></svg>
